SVG/desktop.svg

<?xml version="1.0" encoding="utf-8"?>
<!-- Generated by IcoMoon.io -->
<!DOCTYPE svg PUBLIC "-//W3C//DTD SVG 1.1//EN" "http://www.w3.org/Graphics/SVG/1.1/DTD/svg11.dtd">
<svg version="1.1" xmlns="http://www.w3.org/2000/svg" xmlns:xlink="http://www.w3.org/1999/xlink" width="15" height="14" viewBox="0 0 15 14">
<path fill="#444444" d="M14 7.75v-6.5q0-0.102-0.074-0.176t-0.176-0.074h-12.5q-0.102 0-0.176 0.074t-0.074 0.176v6.5q0 0.102 0.074 0.176t0.176 0.074h12.5q0.102 0 0.176-0.074t0.074-0.176zM15 1.25v8.5q0 0.516-0.367 0.883t-0.883 0.367h-4.25q0 0.289 0.125 0.605t0.25 0.555 0.125 0.34q0 0.203-0.148 0.352t-0.352 0.148h-4q-0.203 0-0.352-0.148t-0.148-0.352q0-0.109 0.125-0.344t0.25-0.547 0.125-0.609h-4.25q-0.516 0-0.883-0.367t-0.367-0.883v-8.5q0-0.516 0.367-0.883t0.883-0.367h12.5q0.516 0 0.883 0.367t0.367 0.883z"></path>
</svg>

<svg xmlns="http://www.w3.org/2000/svg" viewBox="0 0 15 14"><path d="M14 7.75v-6.5q0-.102-.074-.176T13.75 1H1.25q-.102 0-.176.074T1 1.25v6.5q0 .102.074.176T1.25 8h12.5q.102 0 .176-.074T14 7.75zm1-6.5v8.5q0 .516-.367.883T13.75 11H9.5q0 .29.125.605t.25.555.125.34q0 .203-.148.352T9.5 13h-4q-.203 0-.352-.148T5 12.5q0-.11.125-.344t.25-.547T5.5 11H1.25q-.516 0-.883-.367T0 9.75v-8.5Q0 .734.367.367T1.25 0h12.5q.516 0 .883.367T15 1.25z" /></svg>
